lib/flags/l/EC.svg

<svg xmlns="http://www.w3.org/2000/svg" fill="none" viewBox="0 0 32 24"><mask id="EC_svg__a" width="32" height="24" x="0" y="0" mask-type="alpha" maskUnits="userSpaceOnUse"><path fill="#fff" d="M0 0H32V24H0z"/></mask><g mask="url(#EC_svg__a)"><path fill="#2E42A5" fill-rule="evenodd" d="M0 0V24H32V0H0Z" clip-rule="evenodd"/><mask id="EC_svg__b" width="32" height="24" x="0" y="0" mask-type="alpha" maskUnits="userSpaceOnUse"><path fill="#fff" fill-rule="evenodd" d="M0 0V24H32V0H0Z" clip-rule="evenodd"/></mask><g mask="url(#EC_svg__b)"><path fill="#FECA00" fill-rule="evenodd" d="M0 0V12H32V0H0Z" clip-rule="evenodd"/><path fill="#E31D1C" fill-rule="evenodd" d="M0 18V24H32V18H0Z" clip-rule="evenodd"/><path fill="#7B2900" fill-rule="evenodd" d="M9.71729 5.71427C9.71729 5.71427 13.8735 3.83665 14.2513 4.04996C14.6291 4.26326 14.7202 4.87124 15.0464 4.87124C15.3725 4.87124 16.029 4.67912 16.3032 4.67912C16.5773 4.67912 16.8483 4.87124 16.8483 4.87124H18.0189V4.22025L23.3271 5.71427C23.3271 5.71427 20.2311 6.11875 19.9978 6.11875C19.7644 6.11875 19.9978 6.45237 19.9978 6.45237C19.9978 6.45237 19.5563 6.11875 18.884 6.11875C18.2116 6.11875 16.8483 6.81332 16.8483 6.81332L17.3438 7.87947L16.8483 8.19297L16.3032 7.87947C16.3032 7.87947 16.3385 7.00271 16.1037 7.00271C15.8689 7.00271 15.6978 7.56596 15.6978 7.87947C15.6978 8.19297 15.0464 8.19297 15.0464 8.19297L15.3373 7.60607C15.3373 7.60607 15.6265 6.63303 15.0464 6.63303C14.4662 6.63303 11.8215 6.11875 11.8215 6.11875L11.1453 6.45237L11.387 5.71427H9.71729Z" clip-rule="evenodd"/><path fill="#E31D1C" fill-rule="evenodd" d="M11.5012 15.7742C10.8525 14.3163 11.5012 11.0865 11.5012 11.0865L12.7619 11.7476C12.6123 12.5014 12.5889 13.9258 13.0606 15.0908C13.5324 16.2557 15.3157 17.1732 15.3157 17.1732C15.3157 17.1732 16.2153 17.3738 14.8484 17.5184C13.4815 17.6629 12.1499 17.2321 11.5012 15.7742ZM14.7332 21.5168C14.3271 21.5168 15.5455 18.8078 15.5455 18.8078L15.9214 18.0552C15.9214 18.0552 15.9675 21.244 15.71 21.5168C15.5449 21.6916 15.357 21.6423 15.1363 21.5843C15.0127 21.5519 14.8789 21.5168 14.7332 21.5168Z" clip-rule="evenodd"/><path fill="#2E42A5" fill-rule="evenodd" d="M10.3269 15.298C9.78339 13.1211 10.6313 10.1649 10.6313 10.1649L11.4846 10.7746C11.3592 11.9002 11.3592 14.8111 12.081 16.0723C12.8028 17.3336 15.9682 17.8634 15.9682 17.8634C15.9682 17.8634 15.3437 18.3251 14.1985 18.5409C13.0534 18.7567 10.8704 17.475 10.3269 15.298ZM13.9558 21.2171L14.4579 19.4247L15.1655 18.5589H15.6743C15.6743 18.5589 14.958 21.6395 14.4579 21.6395C14.133 21.6395 14.2302 21.4612 14.3382 21.2632C14.3965 21.1564 14.4579 21.0438 14.4579 20.9504C14.4579 20.6837 13.9558 21.2171 13.9558 21.2171Z" clip-rule="evenodd"/><path fill="#FECA00" fill-rule="evenodd" d="M9.49788 15.671C9.22819 13.7972 9.76757 9.31995 9.76757 9.31995L10.6209 9.92963C10.2352 11.0141 10.3546 14.126 10.6209 15.671C10.8871 17.2161 13.4065 18.1475 13.4065 18.1475C13.4065 18.1475 12.782 18.6091 11.6368 18.825C10.4916 19.0408 9.76757 17.5449 9.49788 15.671ZM13.6865 19.4155C13.2006 19.4155 13.8983 18.7189 13.8983 18.7189H15.0615C15.0615 18.7189 14.6635 19.7029 14.1723 19.7029C13.9261 19.7029 13.9267 19.6306 13.9274 19.5586C13.9281 19.487 13.9288 19.4155 13.6865 19.4155Z" clip-rule="evenodd"/><path fill="#E31D1C" fill-rule="evenodd" d="M20.3655 15.7742C21.0142 14.3163 20.3655 11.0865 20.3655 11.0865L19.1048 11.7476C19.2544 12.5014 19.2778 13.9258 18.8061 15.0908C18.3343 16.2557 16.551 17.1732 16.551 17.1732C16.551 17.1732 15.6514 17.3738 17.0183 17.5184C18.3852 17.6629 19.7168 17.2321 20.3655 15.7742ZM17.1335 21.5168C17.5396 21.5168 16.3212 18.8078 16.3212 18.8078L15.9453 18.0552C15.9453 18.0552 15.8992 21.244 16.1567 21.5168C16.3218 21.6916 16.5097 21.6423 16.7304 21.5843C16.854 21.5519 16.9878 21.5168 17.1335 21.5168Z" clip-rule="evenodd"/><path fill="#2E42A5" fill-rule="evenodd" d="M21.5398 15.298C22.0833 13.1211 21.2354 10.1649 21.2354 10.1649L20.3821 10.7746C20.5075 11.9002 20.5075 14.8111 19.7857 16.0723C19.0639 17.3336 15.8985 17.8634 15.8985 17.8634C15.8985 17.8634 16.523 18.3251 17.6682 18.5409C18.8133 18.7567 20.9963 17.475 21.5398 15.298ZM17.9109 21.2171L17.4088 19.4247L16.7012 18.5589H16.1924C16.1924 18.5589 16.9087 21.6395 17.4088 21.6395C17.7337 21.6395 17.6365 21.4612 17.5285 21.2632C17.4702 21.1564 17.4088 21.0438 17.4088 20.9504C17.4088 20.6837 17.9109 21.2171 17.9109 21.2171Z" clip-rule="evenodd"/><path fill="#FECA00" fill-rule="evenodd" d="M22.3688 15.671C22.6385 13.7972 22.0991 9.31995 22.0991 9.31995L21.2458 9.92963C21.6315 11.0141 21.5121 14.126 21.2458 15.671C20.9796 17.2161 18.4602 18.1475 18.4602 18.1475C18.4602 18.1475 19.0847 18.6091 20.2299 18.825C21.3751 19.0408 22.0991 17.5449 22.3688 15.671ZM18.1802 19.4155C18.6661 19.4155 17.9684 18.7189 17.9684 18.7189H16.8052C16.8052 18.7189 17.2032 19.7029 17.6944 19.7029C17.9406 19.7029 17.94 19.6306 17.9393 19.5586C17.9386 19.487 17.9379 19.4155 18.1802 19.4155Z" clip-rule="evenodd"/><path fill="#6FAE21" d="M10.2029 10.4461 10.2944 9.8937 11.8954 9.99734 10.681 8.73942 11.0902 8.35024 12.7325 10.0515 11.3284 7.41154 11.8138 7.12285 13.0922 9.00323 12.4824 7.04874 13.0067 6.84021 14.9723 10.7602 14.2183 10.7114 14.2922 10.9482 14.9341 11.1185 14.7879 11.6619 14.4902 11.583 14.7683 12.4743 14.2852 11.7638 15.1263 13.3443 13.0599 11.2037 10.2029 10.4461zM21.9263 10.4461 21.8347 9.8937 20.2338 9.99734 21.4481 8.73942 21.039 8.35024 19.3966 10.0515 20.8007 7.41154 20.3153 7.12285 19.037 9.00323 19.6467 7.04874 19.1224 6.84021 17.1568 10.7602 17.9109 10.7114 17.837 10.9482 17.195 11.1185 17.3413 11.6619 17.639 11.583 17.3609 12.4743 17.8439 11.7638 17.0029 13.3443 19.0693 11.2037 21.9263 10.4461z"/><path fill="#171401" d="M11.0669 21.3112L10.6545 20.9254L22.8449 8.09058L23.2572 8.47645L11.0669 21.3112Z"/><path fill="#CECECC" fill-rule="evenodd" d="M22.5354 8.18943 23.1604 8.77887 23.5127 7.80444 22.5354 8.18943zM11.3765 21.3087 10.6587 20.8367 10.4261 21.8042 11.3765 21.3087z" clip-rule="evenodd"/><path fill="#171401" d="M10.1601 19.3988L9.7478 19.0129L21.9382 6.1781L22.3505 6.56397L10.1601 19.3988Z"/><path fill="#CECECC" fill-rule="evenodd" d="M21.6287 6.27696 22.2537 6.86639 22.606 5.89197 21.6287 6.27696zM10.4698 19.3962 9.75191 18.9243 9.51934 19.8917 10.4698 19.3962z" clip-rule="evenodd"/><path fill="#171401" d="M21.2535 21.3112L21.6658 20.9254L9.4754 8.09058L9.06309 8.47645L21.2535 21.3112Z"/><path fill="#CECECC" fill-rule="evenodd" d="M9.78491 8.18943 9.15988 8.77887 8.8076 7.80444 9.78491 8.18943zM20.9438 21.3087 21.6617 20.8367 21.8942 21.8042 20.9438 21.3087z" clip-rule="evenodd"/><path fill="#171401" d="M22.3868 19.8487L22.7991 19.4628L10.6087 6.62805L10.1964 7.01392L22.3868 19.8487Z"/><path fill="#CECECC" fill-rule="evenodd" d="M10.9182 6.72691 10.2932 7.31634 9.9409 6.34192 10.9182 6.72691zM22.0771 19.8462 22.795 19.3742 23.0275 20.3417 22.0771 19.8462z" clip-rule="evenodd"/><path fill="#B74E01" d="M13.667 16.375H18.2V18.625H13.667z"/><path fill="#7DB8FF" stroke="#FECA00" stroke-width=".5" d="M15.9478 17.2869C16.8466 17.2869 17.6234 16.7088 18.1629 15.852C18.7044 14.992 19.0312 13.8192 19.0312 12.5369C19.0312 11.2545 18.7044 10.0818 18.1629 9.22168C17.6234 8.36489 16.8466 7.78687 15.9478 7.78687C15.049 7.78687 14.2723 8.36489 13.7328 9.22168C13.1913 10.0818 12.8645 11.2545 12.8645 12.5369C12.8645 13.8192 13.1913 14.992 13.7328 15.852C14.2723 16.7088 15.049 17.2869 15.9478 17.2869Z"/><mask id="EC_svg__c" width="8" height="11" x="12" y="7" mask-type="alpha" maskUnits="userSpaceOnUse"><path fill="#fff" stroke="#fff" stroke-width=".5" d="M15.9478 17.2869C16.8466 17.2869 17.6234 16.7088 18.1629 15.852C18.7044 14.992 19.0312 13.8192 19.0312 12.5369C19.0312 11.2545 18.7044 10.0818 18.1629 9.22168C17.6234 8.36489 16.8466 7.78687 15.9478 7.78687C15.049 7.78687 14.2723 8.36489 13.7328 9.22168C13.1913 10.0818 12.8645 11.2545 12.8645 12.5369C12.8645 13.8192 13.1913 14.992 13.7328 15.852C14.2723 16.7088 15.049 17.2869 15.9478 17.2869Z"/></mask><g fill-rule="evenodd" clip-rule="evenodd" mask="url(#EC_svg__c)"><path fill="#6FAE21" d="M12.8796 12.6099H14.4919C14.4919 12.6099 15.6002 12.8555 15.046 13.0487 14.4919 13.2419 14.4919 13.3058 14.4919 13.5813 14.4919 13.8569 14.4919 14.8652 14.4919 15.0805 14.4919 15.2959 14.8861 15.7569 14.0552 15.7569 13.2242 15.7569 12.5083 12.3408 12.5083 12.3408L12.8796 12.6099zM19.1792 12.7955C19.1792 12.7955 17.6815 13.0914 16.6555 12.9928 15.6295 12.8942 15.1792 12.7955 15.1792 12.7955 15.1792 12.7955 15.8943 13.1675 16.1485 13.4792 16.4026 13.791 16.923 14.3299 17.4535 14.3299 17.9839 14.3299 18.7971 14.8331 18.7971 14.8331L19.1792 12.7955z"/><path fill="#F7FCFF" d="M13.3189 10.1356C13.3189 10.1356 14.5536 10.3742 14.8509 10.7315C15.1483 11.0888 14.4581 11.4461 16.2571 11.0888C18.0561 10.7315 19.4841 10.1083 19.4841 11.0888C19.4841 12.0693 19.327 12.9725 18.5528 12.9725C17.7787 12.9725 17.4698 12.9725 15.1089 12.9725C12.748 12.9725 11.4609 13.6946 11.6262 12.5327C11.7915 11.3708 13.3189 10.1356 13.3189 10.1356Z"/></g></g></g></svg>

<svg xmlns="http://www.w3.org/2000/svg" fill="none" viewBox="0 0 32 24"><mask id="EC_svg__a" width="32" height="24" x="0" y="0" maskUnits="userSpaceOnUse"><path fill="#fff" d="M0 0h32v24H0z"/></mask><g mask="url(#EC_svg__a)"><path fill="#2E42A5" fill-rule="evenodd" d="M0 0v24h32V0H0z" clip-rule="evenodd"/><mask id="EC_svg__b" width="32" height="24" x="0" y="0" maskUnits="userSpaceOnUse"><path fill="#fff" fill-rule="evenodd" d="M0 0v24h32V0H0z" clip-rule="evenodd"/></mask><g mask="url(#EC_svg__b)"><path fill="#FECA00" fill-rule="evenodd" d="M0 0v12h32V0H0z" clip-rule="evenodd"/><path fill="#E31D1C" fill-rule="evenodd" d="M0 18v6h32v-6H0z" clip-rule="evenodd"/><path fill="#7B2900" fill-rule="evenodd" d="M9.717 5.714s4.156-1.877 4.534-1.664c.378.213.469.821.795.821.326 0 .983-.192 1.257-.192.274 0 .545.192.545.192h1.17v-.65l5.309 1.493s-3.096.405-3.33.405c-.233 0 0 .333 0 .333s-.441-.333-1.113-.333c-.673 0-2.036.694-2.036.694l.496 1.066-.496.314-.545-.314s.035-.876-.2-.876c-.234 0-.406.563-.406.876 0 .314-.65.314-.65.314l.29-.587s.29-.973-.29-.973c-.581 0-3.226-.514-3.226-.514l-.676.333.242-.738h-1.67z" clip-rule="evenodd"/><path fill="#E31D1C" fill-rule="evenodd" d="M11.501 15.774c-.648-1.458 0-4.688 0-4.688l1.261.662c-.15.753-.173 2.178.299 3.343s2.255 2.082 2.255 2.082.9.2-.468.345c-1.366.145-2.698-.286-3.347-1.744zm3.232 5.743c-.406 0 .813-2.71.813-2.71l.376-.752s.046 3.189-.212 3.462c-.165.175-.353.125-.574.067a1.563 1.563 0 00-.403-.067z" clip-rule="evenodd"/><path fill="#2E42A5" fill-rule="evenodd" d="M10.327 15.298c-.544-2.177.304-5.133.304-5.133l.854.61c-.126 1.125-.126 4.036.596 5.297.722 1.262 3.887 1.791 3.887 1.791s-.624.462-1.77.678c-1.145.216-3.328-1.066-3.871-3.243zm3.629 5.92l.502-1.793.707-.866h.51s-.717 3.08-1.217 3.08c-.325 0-.228-.178-.12-.376.059-.107.12-.22.12-.313 0-.266-.502.267-.502.267z" clip-rule="evenodd"/><path fill="#FECA00" fill-rule="evenodd" d="M9.498 15.671c-.27-1.874.27-6.351.27-6.351l.853.61c-.386 1.084-.266 4.196 0 5.741s2.785 2.477 2.785 2.477-.624.461-1.77.677c-1.144.216-1.868-1.28-2.138-3.154zm4.189 3.745c-.486 0 .211-.697.211-.697h1.164s-.398.984-.89.984c-.246 0-.245-.072-.245-.144.001-.072.002-.143-.24-.143z" clip-rule="evenodd"/><path fill="#E31D1C" fill-rule="evenodd" d="M20.365 15.774c.65-1.458 0-4.688 0-4.688l-1.26.662c.15.753.173 2.178-.3 3.343-.47 1.165-2.254 2.082-2.254 2.082s-.9.2.467.345c1.367.145 2.699-.286 3.347-1.744zm-3.232 5.743c.407 0-.812-2.71-.812-2.71l-.376-.752s-.046 3.189.212 3.462c.165.175.353.125.573.067.124-.032.258-.067.403-.067z" clip-rule="evenodd"/><path fill="#2E42A5" fill-rule="evenodd" d="M21.54 15.298c.543-2.177-.305-5.133-.305-5.133l-.853.61c.125 1.125.125 4.036-.596 5.297-.722 1.262-3.888 1.791-3.888 1.791s.625.462 1.77.678c1.145.216 3.328-1.066 3.872-3.243zm-3.63 5.92l-.501-1.793-.708-.866h-.509s.717 3.08 1.217 3.08c.325 0 .228-.178.12-.376-.059-.107-.12-.22-.12-.313 0-.266.502.267.502.267z" clip-rule="evenodd"/><path fill="#FECA00" fill-rule="evenodd" d="M22.369 15.671c.27-1.874-.27-6.351-.27-6.351l-.853.61c.386 1.084.266 4.196 0 5.741s-2.786 2.477-2.786 2.477.625.461 1.77.677c1.145.216 1.87-1.28 2.139-3.154zm-4.189 3.745c.486 0-.212-.697-.212-.697h-1.163s.398.984.89.984c.246 0 .245-.072.244-.144 0-.072-.001-.143.241-.143z" clip-rule="evenodd"/><path fill="#6FAE21" d="M10.203 10.446l.091-.552 1.601.103-1.214-1.258.41-.389 1.641 1.702-1.404-2.64.486-.29 1.278 1.881-.61-1.954.525-.209 1.965 3.92-.754-.049.074.237.642.17-.146.544-.298-.08.278.892-.483-.71.841 1.58-2.066-2.14-2.857-.758zm11.723 0l-.091-.552-1.601.103 1.214-1.258-.41-.389-1.642 1.702 1.405-2.64-.486-.29-1.278 1.881.61-1.954-.525-.209-1.965 3.92.754-.049-.074.237-.642.17.146.544.298-.08-.278.892.483-.71-.841 1.58 2.066-2.14 2.857-.758z"/><path fill="#171401" d="M11.067 21.311l-.413-.386 12.19-12.834.413.385-12.19 12.835z"/><path fill="#CECECC" fill-rule="evenodd" d="M22.535 8.19l.625.589.352-.975-.977.385zM11.376 21.309l-.717-.472-.233.967.95-.495z" clip-rule="evenodd"/><path fill="#171401" d="M10.16 19.399l-.412-.386 12.19-12.835.412.386-12.19 12.835z"/><path fill="#CECECC" fill-rule="evenodd" d="M21.628 6.277l.625.59.353-.975-.978.385zM10.47 19.396l-.718-.472-.233.968.95-.496z" clip-rule="evenodd"/><path fill="#171401" d="M21.253 21.311l.413-.386L9.476 8.091l-.413.385 12.19 12.835z"/><path fill="#CECECC" fill-rule="evenodd" d="M9.785 8.19l-.625.589-.353-.975.978.385zm11.159 13.119l.717-.472.233.967-.95-.495z" clip-rule="evenodd"/><path fill="#171401" d="M22.387 19.849l.412-.386-12.19-12.835-.413.386 12.19 12.835z"/><path fill="#CECECC" fill-rule="evenodd" d="M10.918 6.727l-.625.59-.352-.975.977.385zm11.159 13.119l.718-.472.232.968-.95-.496z" clip-rule="evenodd"/><path fill="#B74E01" d="M13.667 16.375H18.2v2.25h-4.533z"/><path fill="#7DB8FF" stroke="#FECA00" stroke-width=".5" d="M15.948 17.287c.898 0 1.675-.578 2.215-1.435.541-.86.868-2.033.868-3.315 0-1.283-.327-2.455-.868-3.315-.54-.857-1.317-1.435-2.215-1.435-.9 0-1.676.578-2.215 1.435-.542.86-.869 2.032-.869 3.315 0 1.282.327 2.455.869 3.315.54.857 1.316 1.435 2.215 1.435z"/><mask id="EC_svg__c" width="8" height="11" x="12" y="7" maskUnits="userSpaceOnUse"><path fill="#fff" stroke="#fff" stroke-width=".5" d="M15.948 17.287c.898 0 1.675-.578 2.215-1.435.541-.86.868-2.033.868-3.315 0-1.283-.327-2.455-.868-3.315-.54-.857-1.317-1.435-2.215-1.435-.9 0-1.676.578-2.215 1.435-.542.86-.869 2.032-.869 3.315 0 1.282.327 2.455.869 3.315.54.857 1.316 1.435 2.215 1.435z"/></mask><g fill-rule="evenodd" clip-rule="evenodd" mask="url(#EC_svg__c)"><path fill="#6FAE21" d="M12.88 12.61h1.612s1.108.245.554.439c-.554.193-.554.257-.554.532v1.5c0 .215.394.676-.437.676-.83 0-1.547-3.416-1.547-3.416l.371.269zm6.3.186s-1.499.295-2.525.197c-1.026-.099-1.476-.197-1.476-.197s.715.371.97.683c.253.312.774.85 1.304.85s1.344.504 1.344.504l.382-2.037z"/><path fill="#F7FCFF" d="M13.319 10.136s1.234.238 1.532.596c.297.357-.393.714 1.406.357s3.227-.98 3.227 0-.157 1.883-.931 1.883h-3.444c-2.361 0-3.648.723-3.483-.44.165-1.161 1.693-2.396 1.693-2.396z"/></g></g></g></svg>
